!!!OTL: In Festo Dedicationis S Michaelis Archangeli
**kern
*staff1
=--
*clefC1
*k[]
0r
=-
1a
2b
2dd
=-
1cc
1dd
=-
1cc
2b
2a
=-
1g
1f
=-
1a
1b
=-
!LO:TX:Y=117:t=P
1cc
1b
2cc
2dd
=-
1cc
1dd
=-
!!linebreak:original
2dd
2dd
2cc
2a
1g
=-
1a
1a
=-
1a
0a
0cc
1dd
=-
!LO:TX:Y=-44:t=P
1a
0a
0b
1cc
=-
1a
1f
=-
1g
1a
!!linebreak:original
=-
1b
2cc
2dd
=-
1cc
1dd
=-
1dd
1cc
=-
2dd
2dd
1a
=-
1dd
1cc
=-
2dd
2dd
1a
=-
1g
2g
2f
=-
1e
0d
=-
!!linebreak:original
0r
=-
1a
2cc
2cc
=-
2b
2cc
1dd
=-
1cc
1b
=-
1cc
1a
=-
2a
2a
2b
2dd
=-
!LO:TX:Y=-42:t=P
1cc
1dd
=-
1a
2b
2cc
=-
2dd
2b
2cc
2dd
=-
0cc
=-
0dd
!!linebreak:original
=-
*clefC4
1d
1e
=-
!LO:TX:Y=-45:t=P
2f
2e
2f
2d
=-
!LO:TX:Y=-47:t=P
2c
2e
2d
2c
=-
2d
2B
0A
2f
2d
=-
2c
2B
1F
=-
!LO:TX:Y=-43:t=P
1G
2f
2e
=-
2d
2c
0d
=-
!!pagebreak:original
1d
1e
=-
2f
2e
2f
2d
=-
2c
2e
2d
2c
=-
2d
2B
0A
2f
2d
=-
2c
2B
1F
=-
1G
2f
2e
=-
2d
2c
0d
!!linebreak:original
=-
2F
4G
4G
2F
2D
=-
1F
1G
=-
2A
2B
1c
=-
2c
2d
2c
2A
=-
1F
1G
=-
2f
2e
2d
2c
=-
0d
=-=
*-
!!title: @{OTL}, @{GTL}, ed. @{ENC}
!!!pag:
!!!GTL: Hymnbook C
!!!EFL: 
!!!YEM: Creative Commons CC/BY/NC/SA 4.0
!!!ENC: Marcin Konik
!!!END: 2015-0m-dd
!!!EED: Marcin Konik
!!!EEV: 
!!!ONB: Encoded in vim by Marcin Konik
!!!CharacterEncoding: utf-8
!!!RDF**kern: l=long note in original notation
!!!RDF**kern: i=editorial accidental
!!muse2ps: z14jc180F
!!!COM: Anonim
!!!CDT: [?]
!!!TXO: Polish
!!!ODT: 
!!!GTL: Hymnbook C
!!!ARL: Opactwo św. Wojciecha, Staniątki 
!!!voices:	1
